public/svg/cypress.svg

<svg width="24" height="24" viewBox="0 0 24 24" fill="none" xmlns="http://www.w3.org/2000/svg">
<g clip-path="url(#clip0)">
<path d="M11.998 0C5.366 0 2.67047e-06 5.367 2.67047e-06 12C-0.00104915 13.5762 0.308622 15.1371 0.911306 16.5934C1.51399 18.0498 2.39786 19.3731 3.51238 20.4876C4.62689 21.6021 5.95018 22.486 7.40656 23.0887C8.86294 23.6914 10.4238 24.0011 12 24C18.633 24 24 18.633 24 12C23.999 5.367 18.588 0 11.998 0ZM6.37 14.575C6.762 15.098 7.286 15.317 8.027 15.317C8.377 15.317 8.726 15.273 9.031 15.142C9.337 15.012 9.686 14.836 10.121 14.575L11.344 16.32C10.341 17.15 9.206 17.542 7.897 17.542C6.849 17.542 5.977 17.324 5.192 16.888C4.42993 16.4384 3.82137 15.7692 3.446 14.968C3.054 14.138 2.835 13.178 2.835 12.043C2.835 10.953 3.054 9.949 3.445 9.12C3.81833 8.29412 4.4262 7.59619 5.193 7.113C5.934 6.633 6.85 6.415 7.854 6.415C8.553 6.415 9.207 6.502 9.731 6.72C10.3189 6.94756 10.8644 7.27205 11.345 7.68L10.123 9.338C9.81277 9.10895 9.476 8.91824 9.12 8.77C8.815 8.64 8.422 8.596 8.072 8.596C6.589 8.596 5.847 9.73 5.847 12.042C5.804 13.222 6.022 14.05 6.371 14.574H6.37V14.575ZM18.37 17.28C17.934 18.633 17.279 19.637 16.362 20.378C15.446 21.121 14.224 21.513 12.697 21.644L12.392 19.594C13.395 19.462 14.137 19.244 14.617 18.894C14.791 18.764 15.141 18.371 15.141 18.371L11.519 6.764H14.529L16.624 15.447L18.85 6.764H21.773L18.37 17.28Z" fill="#1B5BF7"/>
</g>
<defs>
<clipPath id="clip0">
<rect width="24" height="24" fill="white"/>
</clipPath>
</defs>
</svg>

<svg xmlns="http://www.w3.org/2000/svg" width="24" height="24" fill="none" xmlns:v="https://vecta.io/nano"><g clip-path="url(#A)"><path d="M11.998 0C5.366 0 0 5.367 0 12a11.99 11.99 0 0 0 3.512 8.488c1.115 1.114 2.438 1.998 3.894 2.601A11.99 11.99 0 0 0 12 24c6.633 0 12-5.367 12-12S18.588 0 11.998 0zM6.37 14.575c.392.523.916.742 1.657.742.35 0 .699-.044 1.004-.175s.655-.306 1.09-.567l1.223 1.745c-1.003.83-2.138 1.222-3.447 1.222-1.048 0-1.92-.218-2.705-.654-.762-.45-1.371-1.119-1.746-1.92-.392-.83-.611-1.79-.611-2.925 0-1.09.219-2.094.61-2.923.373-.826.981-1.524 1.748-2.007.741-.48 1.657-.698 2.661-.698.699 0 1.353.087 1.877.305a5.64 5.64 0 0 1 1.614.96l-1.222 1.658c-.31-.229-.647-.42-1.003-.568-.305-.13-.698-.174-1.048-.174-1.483 0-2.225 1.134-2.225 3.446-.043 1.18.175 2.008.524 2.532H6.37v.001zm12 2.705c-.436 1.353-1.091 2.357-2.008 3.098s-2.138 1.135-3.665 1.266l-.305-2.05c1.003-.132 1.745-.35 2.225-.7.174-.13.524-.523.524-.523L11.519 6.764h3.01l2.095 8.683 2.226-8.683h2.923L18.37 17.28z" fill="#1b5bf7"/></g><defs><clipPath id="A"><path fill="#fff" d="M0 0h24v24H0z"/></clipPath></defs></svg>
